packages/ui-solid/icons/ellipsis_vertical_28.svg

<svg width="28" height="28" viewBox="0 0 28 28" fill="none" xmlns="http://www.w3.org/2000/svg">
<path fill-rule="evenodd" clip-rule="evenodd" d="M14.0008 9.33525C15.2841 9.33525 16.3341 8.28525 16.3341 7.00191C16.3341 5.71858 15.2841 4.66858 14.0008 4.66858C12.7174 4.66858 11.6674 5.71858 11.6674 7.00191C11.6674 8.28525 12.7174 9.33525 14.0008 9.33525ZM14.0008 11.6686C12.7174 11.6686 11.6674 12.7186 11.6674 14.0019C11.6674 15.2852 12.7174 16.3352 14.0008 16.3352C15.2841 16.3352 16.3341 15.2852 16.3341 14.0019C16.3341 12.7186 15.2841 11.6686 14.0008 11.6686ZM11.6674 21.0019C11.6674 19.7186 12.7174 18.6686 14.0008 18.6686C15.2841 18.6686 16.3341 19.7186 16.3341 21.0019C16.3341 22.2852 15.2841 23.3352 14.0008 23.3352C12.7174 23.3352 11.6674 22.2852 11.6674 21.0019Z" fill="#007AFF"/>
</svg>

<svg xmlns="http://www.w3.org/2000/svg" width="28" height="28" fill="none"><path fill="currentColor" fill-rule="evenodd" d="M14 9.335a2.34 2.34 0 0 0 2.334-2.333 2.34 2.34 0 0 0-2.333-2.333 2.34 2.34 0 0 0-2.334 2.333 2.34 2.34 0 0 0 2.334 2.333m0 2.334a2.34 2.34 0 0 0-2.333 2.333 2.34 2.34 0 0 0 2.334 2.333 2.34 2.34 0 0 0 2.333-2.333 2.34 2.34 0 0 0-2.333-2.333m-2.333 9.333a2.34 2.34 0 0 1 2.334-2.333 2.34 2.34 0 0 1 2.333 2.333 2.34 2.34 0 0 1-2.333 2.333 2.34 2.34 0 0 1-2.334-2.333" clip-rule="evenodd"/></svg>
